mimes/16/text-x-copying.svg

<?xml version="1.0" encoding="UTF-8" standalone="no"?>
<svg
   xmlns:dc="http://purl.org/dc/elements/1.1/"
   xmlns:cc="http://creativecommons.org/ns#"
   xmlns:rdf="http://www.w3.org/1999/02/22-rdf-syntax-ns#"
   xmlns:svg="http://www.w3.org/2000/svg"
   xmlns="http://www.w3.org/2000/svg"
   xmlns:xlink="http://www.w3.org/1999/xlink"
   xmlns:sodipodi="http://sodipodi.sourceforge.net/DTD/sodipodi-0.dtd"
   xmlns:inkscape="http://www.inkscape.org/namespaces/inkscape"
   id="svg3810"
   height="16"
   width="16"
   version="1.1"
   sodipodi:docname="text-x-copying.svg"
   inkscape:version="0.92.1 r15371">
  <sodipodi:namedview
     pagecolor="#ffffff"
     bordercolor="#666666"
     borderopacity="1"
     objecttolerance="10"
     gridtolerance="10"
     guidetolerance="10"
     inkscape:pageopacity="0"
     inkscape:pageshadow="2"
     inkscape:window-width="1920"
     inkscape:window-height="1016"
     id="namedview22"
     showgrid="false"
     showborder="false"
     inkscape:zoom="1"
     inkscape:cx="7.7710749"
     inkscape:cy="6.4069233"
     inkscape:window-x="0"
     inkscape:window-y="27"
     inkscape:window-maximized="1"
     inkscape:current-layer="svg3810">
    <inkscape:grid
       type="xygrid"
       id="grid4499" />
  </sodipodi:namedview>
  <defs
     id="defs3812">
    <linearGradient
       gradientTransform="matrix(0.24324324,0,0,0.35135133,2.1621636,-0.43242804)"
       gradientUnits="userSpaceOnUse"
       xlink:href="#linearGradient3977"
       id="linearGradient3988"
       y2="41.076912"
       x2="23.99999"
       y1="6.9230647"
       x1="23.99999" />
    <linearGradient
       id="linearGradient3977">
      <stop
         offset="0"
         style="stop-color:#ffffff;stop-opacity:1"
         id="stop3979" />
      <stop
         offset="0"
         style="stop-color:#ffffff;stop-opacity:0.23529412"
         id="stop3981" />
      <stop
         offset="1"
         style="stop-color:#ffffff;stop-opacity:0.15686275"
         id="stop3983" />
      <stop
         offset="1"
         style="stop-color:#ffffff;stop-opacity:0.39215687"
         id="stop3985" />
    </linearGradient>
    <linearGradient
       id="linearGradient3600">
      <stop
         offset="0"
         style="stop-color:#f4f4f4;stop-opacity:1"
         id="stop3602" />
      <stop
         offset="1"
         style="stop-color:#dbdbdb;stop-opacity:1"
         id="stop3604" />
    </linearGradient>
    <linearGradient
       gradientTransform="matrix(0.28571361,0,0,0.30419701,1.1428727,0.2326048)"
       gradientUnits="userSpaceOnUse"
       xlink:href="#linearGradient3600"
       id="linearGradient3806"
       y2="47.013336"
       x2="25.132275"
       y1="0.98520643"
       x1="25.132275" />
    <linearGradient
       id="linearGradient3104-9">
      <stop
         offset="0"
         style="stop-color:#000000;stop-opacity:0.33950618"
         id="stop3106-5" />
      <stop
         offset="1"
         style="stop-color:#000000;stop-opacity:0.24691358"
         id="stop3108-5" />
    </linearGradient>
    <linearGradient
       gradientTransform="matrix(0.25378586,0,0,0.30501865,19.128979,-0.68547704)"
       gradientUnits="userSpaceOnUse"
       xlink:href="#linearGradient3104-9"
       id="linearGradient3019"
       y2="2.9062471"
       x2="-51.786404"
       y1="50.786446"
       x1="-51.786404" />
  </defs>
  <metadata
     id="metadata3815">
    <rdf:RDF>
      <cc:Work
         rdf:about="">
        <dc:format>image/svg+xml</dc:format>
        <dc:type
           rdf:resource="http://purl.org/dc/dcmitype/StillImage" />
        <dc:title></dc:title>
      </cc:Work>
    </rdf:RDF>
  </metadata>
  <path
     d="m 3,1 c 2.2915074,0 9.999988,8.904e-4 9.999988,8.904e-4 L 13,15 C 13,15 6.3333332,15 3,15 3,10.333334 3,5.6666664 3,1 Z"
     id="path4160"
     style="display:inline;fill:url(#linearGradient3806);fill-opacity:1;stroke:none" />
  <path
     d="m 12.5,14.5 -9.0000001,0 0,-13 L 12.5,1.5 Z"
     id="rect6741-1"
     style="fill:none;stroke:url(#linearGradient3988);stroke-width:1;stroke-linecap:round;stroke-linejoin:miter;stroke-miterlimit:4;stroke-dasharray:none;stroke-dashoffset:0;stroke-opacity:1" />
  <path
     d="m 2.4999621,0.49997396 c 2.5206756,0 11.0000629,9.54e-4 11.0000629,9.54e-4 l 1.3e-5,14.99909804 c 0,0 -7.3333841,0 -11.000076,0 0,-5.000017 0,-10.000035 0,-15.00005204 z"
     id="path4160-8"
     style="display:inline;fill:none;stroke:url(#linearGradient3019);stroke-width:0.99992192;stroke-linecap:butt;stroke-linejoin:round;stroke-miterlimit:4;stroke-dasharray:none;stroke-dashoffset:0;stroke-opacity:1" />
  <path
     style="color:#000000;font-style:normal;font-variant:normal;font-weight:normal;font-stretch:normal;font-size:medium;line-height:normal;font-family:sans-serif;font-variant-ligatures:normal;font-variant-position:normal;font-variant-caps:normal;font-variant-numeric:normal;font-variant-alternates:normal;font-feature-settings:normal;text-indent:0;text-align:start;text-decoration:none;text-decoration-line:none;text-decoration-style:solid;text-decoration-color:#000000;letter-spacing:normal;word-spacing:normal;text-transform:none;writing-mode:lr-tb;direction:ltr;text-orientation:mixed;dominant-baseline:auto;baseline-shift:baseline;text-anchor:start;white-space:normal;shape-padding:0;clip-rule:nonzero;display:inline;overflow:visible;visibility:visible;opacity:0.2;isolation:auto;mix-blend-mode:normal;color-interpolation:sRGB;color-interpolation-filters:linearRGB;solid-color:#000000;solid-opacity:1;vector-effect:none;fill:#000000;fill-opacity:1;fill-rule:nonzero;stroke:none;stroke-width:1;stroke-linecap:round;stroke-linejoin:round;stroke-miterlimit:4;stroke-dasharray:none;stroke-dashoffset:0;stroke-opacity:1;color-rendering:auto;image-rendering:auto;shape-rendering:auto;text-rendering:auto;enable-background:accumulate"
     d="M 5.5014631,6.4379931 C 5.4063048,6.4377078 5.3182577,6.4919526 5.2758774,6.577153 L 4.027832,9.0732438 c -0.017874,0.03575 -0.026915,0.075758 -0.026367,0.1157226 l 0.00146,0.1567381 C 4.0026273,9.3518049 4,9.3571046 4,9.3632826 v 0.023437 c 0,0.00727 0.00398,0.013343 0.0044,0.020508 V 9.43799 H 4 c 0.00502,0.014197 0.012187,0.027032 0.017578,0.041015 0.0101,0.037938 0.025895,0.072092 0.046875,0.104004 0.2603054,0.553421 0.815998,0.916525 1.4370101,0.916991 0.6206614,-8.98e-4 1.174071,-0.363862 1.4340803,-0.916991 0.02098,-0.03191 0.036775,-0.06607 0.046875,-0.1040039 0.00539,-0.013976 0.012562,-0.026827 0.017578,-0.041016 h -0.010254 c 7e-5,-4.786e-4 -6.81e-5,-9.825e-4 0,-0.00146 h 0.010254 v -0.04834 -0.00146 -0.023437 c 0,-9.975e-4 7.9e-6,-0.00194 0,-0.00293 L 6.9985317,9.183107 C 6.9983142,9.144787 6.9892917,9.107525 6.9721647,9.0732438 L 5.7241191,6.5756882 C 5.6817818,6.4914949 5.5957015,6.4382629 5.5014631,6.4379931 Z m -0.00146,0.8085928 0.8759756,1.7534159 h -1.751956 z"
     id="path4498"
     inkscape:connector-curvature="0" />
  <path
     inkscape:connector-curvature="0"
     id="path4507"
     d="m 7.9996913,4.847762 c -0.3224048,0 -0.5970031,0.209825 -0.7009168,0.4984297 H 6.5044022 c -0.3370188,-0.00477 -0.3370188,0.503196 0,0.4984297 h 0.7943723 c 0.075694,0.2102271 0.1633498,0.3760083 0.3735769,0.4517019 V 11.364879 H 5.9516381 c -0.3370189,-0.0048 -0.3370189,0.643821 0,0.639055 h 4.1878599 c 0.337019,0.0048 0.337019,-0.643821 0,-0.639055 H 8.3582811 V 6.2963233 C 8.5685083,6.2206297 8.6249145,6.0548485 8.700608,5.8446214 h 0.7943721 c 0.337019,0.00477 0.337019,-0.503196 0,-0.4984297 H 8.700608 C 8.5966944,5.057587 8.322096,4.847762 7.9996913,4.847762 Z"
     style="color:#000000;font-style:normal;font-variant:normal;font-weight:normal;font-stretch:normal;font-size:medium;line-height:normal;font-family:sans-serif;font-variant-ligatures:normal;font-variant-position:normal;font-variant-caps:normal;font-variant-numeric:normal;font-variant-alternates:normal;font-feature-settings:normal;text-indent:0;text-align:start;text-decoration:none;text-decoration-line:none;text-decoration-style:solid;text-decoration-color:#000000;letter-spacing:normal;word-spacing:normal;text-transform:none;writing-mode:lr-tb;direction:ltr;text-orientation:mixed;dominant-baseline:auto;baseline-shift:baseline;text-anchor:start;white-space:normal;shape-padding:0;clip-rule:nonzero;display:inline;overflow:visible;visibility:visible;opacity:0.2;isolation:auto;mix-blend-mode:normal;color-interpolation:sRGB;color-interpolation-filters:linearRGB;solid-color:#000000;solid-opacity:1;vector-effect:none;fill:#000000;fill-opacity:1;fill-rule:nonzero;stroke:none;stroke-width:1;stroke-linecap:round;stroke-linejoin:round;stroke-miterlimit:4;stroke-dasharray:none;stroke-dashoffset:0;stroke-opacity:1;color-rendering:auto;image-rendering:auto;shape-rendering:auto;text-rendering:auto;enable-background:accumulate"
     sodipodi:nodetypes="sccccccccccccccccs" />
  <path
     id="path4517"
     d="m 10.501463,6.4379944 c -0.09516,-2.853e-4 -0.183206,0.05396 -0.225586,0.1391599 L 9.027832,9.0732444 c -0.01787,0.03575 -0.02692,0.075757 -0.02637,0.1157225 l 0.0014,0.156738 C 9.002627,9.3518053 9,9.357105 9,9.363283 V 9.38672 C 9,9.394 9.004,9.400063 9.0044,9.407228 V 9.43799 H 9 c 0.005,0.014197 0.01219,0.027031 0.01758,0.041015 0.0101,0.037938 0.0259,0.072092 0.04687,0.104003 0.260306,0.553421 0.815998,0.916525 1.43701,0.916991 0.620661,-9e-4 1.174071,-0.363862 1.43408,-0.916991 0.02098,-0.03191 0.03677,-0.06607 0.04687,-0.1040031 0.0054,-0.013976 0.01256,-0.026827 0.01758,-0.041015 h -0.01025 c 6.9e-5,-4.785e-4 -6.9e-5,-9.825e-4 0,-0.00146 h 0.01025 v -0.04834 -0.00146 -0.023437 c 0,-9.975e-4 8e-6,-0.00193 0,-0.00293 l -0.0015,-0.1772478 c -2.18e-4,-0.03832 -0.0092,-0.075582 -0.02637,-0.1098632 L 10.724118,6.5756895 C 10.681781,6.4914963 10.595701,6.4382643 10.501463,6.4379944 Z m -0.0015,0.8085926 0.875975,1.7534153 H 9.623987 Z"
     style="color:#000000;font-style:normal;font-variant:normal;font-weight:normal;font-stretch:normal;font-size:medium;line-height:normal;font-family:sans-serif;font-variant-ligatures:normal;font-variant-position:normal;font-variant-caps:normal;font-variant-numeric:normal;font-variant-alternates:normal;font-feature-settings:normal;text-indent:0;text-align:start;text-decoration:none;text-decoration-line:none;text-decoration-style:solid;text-decoration-color:#000000;letter-spacing:normal;word-spacing:normal;text-transform:none;writing-mode:lr-tb;direction:ltr;text-orientation:mixed;dominant-baseline:auto;baseline-shift:baseline;text-anchor:start;white-space:normal;shape-padding:0;clip-rule:nonzero;display:inline;overflow:visible;visibility:visible;opacity:0.2;isolation:auto;mix-blend-mode:normal;color-interpolation:sRGB;color-interpolation-filters:linearRGB;solid-color:#000000;solid-opacity:1;vector-effect:none;fill:#000000;fill-opacity:1;fill-rule:nonzero;stroke:none;stroke-width:0.99999994;stroke-linecap:round;stroke-linejoin:round;stroke-miterlimit:4;stroke-dasharray:none;stroke-dashoffset:0;stroke-opacity:1;color-rendering:auto;image-rendering:auto;shape-rendering:auto;text-rendering:auto;enable-background:accumulate"
     inkscape:connector-curvature="0" />
</svg>

<?xml version="1.0" encoding="UTF-8" standalone="no"?>
<svg
   xmlns:dc="http://purl.org/dc/elements/1.1/"
   xmlns:cc="http://creativecommons.org/ns#"
   xmlns:rdf="http://www.w3.org/1999/02/22-rdf-syntax-ns#"
   xmlns:svg="http://www.w3.org/2000/svg"
   xmlns="http://www.w3.org/2000/svg"
   xmlns:xlink="http://www.w3.org/1999/xlink"
   xmlns:sodipodi="http://sodipodi.sourceforge.net/DTD/sodipodi-0.dtd"
   xmlns:inkscape="http://www.inkscape.org/namespaces/inkscape"
   id="svg3810"
   height="16"
   width="16"
   version="1.1"
   sodipodi:docname="text-x-copying.svg"
   inkscape:version="0.91 r13725">
  <sodipodi:namedview
     pagecolor="#ffffff"
     bordercolor="#666666"
     borderopacity="1"
     objecttolerance="10"
     gridtolerance="10"
     guidetolerance="10"
     inkscape:pageopacity="0"
     inkscape:pageshadow="2"
     inkscape:window-width="3200"
     inkscape:window-height="1674"
     id="namedview22"
     showgrid="false"
     showborder="false"
     inkscape:zoom="87.25"
     inkscape:cx="8"
     inkscape:cy="8"
     inkscape:window-x="0"
     inkscape:window-y="60"
     inkscape:window-maximized="1"
     inkscape:current-layer="svg3810">
    <inkscape:grid
       type="xygrid"
       id="grid4499" />
  </sodipodi:namedview>
  <defs
     id="defs3812">
    <linearGradient
       gradientTransform="matrix(0.24324324,0,0,0.35135133,2.1621636,-0.43242804)"
       gradientUnits="userSpaceOnUse"
       xlink:href="#linearGradient3977"
       id="linearGradient3988"
       y2="41.076912"
       x2="23.99999"
       y1="6.9230647"
       x1="23.99999" />
    <linearGradient
       id="linearGradient3977">
      <stop
         offset="0"
         style="stop-color:#ffffff;stop-opacity:1"
         id="stop3979" />
      <stop
         offset="0"
         style="stop-color:#ffffff;stop-opacity:0.23529412"
         id="stop3981" />
      <stop
         offset="1"
         style="stop-color:#ffffff;stop-opacity:0.15686275"
         id="stop3983" />
      <stop
         offset="1"
         style="stop-color:#ffffff;stop-opacity:0.39215687"
         id="stop3985" />
    </linearGradient>
    <linearGradient
       id="linearGradient3600">
      <stop
         offset="0"
         style="stop-color:#f4f4f4;stop-opacity:1"
         id="stop3602" />
      <stop
         offset="1"
         style="stop-color:#dbdbdb;stop-opacity:1"
         id="stop3604" />
    </linearGradient>
    <linearGradient
       gradientTransform="matrix(0.28571361,0,0,0.30419701,1.1428727,0.2326048)"
       gradientUnits="userSpaceOnUse"
       xlink:href="#linearGradient3600"
       id="linearGradient3806"
       y2="47.013336"
       x2="25.132275"
       y1="0.98520643"
       x1="25.132275" />
    <linearGradient
       id="linearGradient3104-9">
      <stop
         offset="0"
         style="stop-color:#000000;stop-opacity:0.33950618"
         id="stop3106-5" />
      <stop
         offset="1"
         style="stop-color:#000000;stop-opacity:0.24691358"
         id="stop3108-5" />
    </linearGradient>
    <linearGradient
       gradientTransform="matrix(0.25378586,0,0,0.30501865,19.128979,-0.68547704)"
       gradientUnits="userSpaceOnUse"
       xlink:href="#linearGradient3104-9"
       id="linearGradient3019"
       y2="2.9062471"
       x2="-51.786404"
       y1="50.786446"
       x1="-51.786404" />
  </defs>
  <metadata
     id="metadata3815">
    <rdf:RDF>
      <cc:Work
         rdf:about="">
        <dc:format>image/svg+xml</dc:format>
        <dc:type
           rdf:resource="http://purl.org/dc/dcmitype/StillImage" />
        <dc:title />
      </cc:Work>
    </rdf:RDF>
  </metadata>
  <path
     d="m 3,1 c 2.2915074,0 9.999988,8.904e-4 9.999988,8.904e-4 L 13,15 C 13,15 6.3333332,15 3,15 3,10.333334 3,5.6666664 3,1 Z"
     id="path4160"
     style="display:inline;fill:url(#linearGradient3806);fill-opacity:1;stroke:none" />
  <path
     d="m 12.5,14.5 -9.0000001,0 0,-13 L 12.5,1.5 Z"
     id="rect6741-1"
     style="fill:none;stroke:url(#linearGradient3988);stroke-width:1;stroke-linecap:round;stroke-linejoin:miter;stroke-miterlimit:4;stroke-dasharray:none;stroke-dashoffset:0;stroke-opacity:1" />
  <path
     d="m 2.4999621,0.49997396 c 2.5206756,0 11.0000629,9.54e-4 11.0000629,9.54e-4 l 1.3e-5,14.99909804 c 0,0 -7.3333841,0 -11.000076,0 0,-5.000017 0,-10.000035 0,-15.00005204 z"
     id="path4160-8"
     style="display:inline;fill:none;stroke:url(#linearGradient3019);stroke-width:0.99992192;stroke-linecap:butt;stroke-linejoin:round;stroke-miterlimit:4;stroke-dasharray:none;stroke-dashoffset:0;stroke-opacity:1" />
  <path
     style="color:#000000;font-style:normal;font-variant:normal;font-weight:normal;font-stretch:normal;font-size:medium;line-height:normal;font-family:sans-serif;font-variant-ligatures:normal;font-variant-position:normal;font-variant-caps:normal;font-variant-numeric:normal;font-variant-alternates:normal;font-feature-settings:normal;text-indent:0;text-align:start;text-decoration:none;text-decoration-line:none;text-decoration-style:solid;text-decoration-color:#000000;letter-spacing:normal;word-spacing:normal;text-transform:none;writing-mode:lr-tb;direction:ltr;text-orientation:mixed;dominant-baseline:auto;baseline-shift:baseline;text-anchor:start;white-space:normal;shape-padding:0;clip-rule:nonzero;display:inline;overflow:visible;visibility:visible;opacity:1;isolation:auto;mix-blend-mode:normal;color-interpolation:sRGB;color-interpolation-filters:linearRGB;solid-color:#000000;solid-opacity:1;vector-effect:none;fill:#7e8087;fill-opacity:1;fill-rule:nonzero;stroke:none;stroke-width:1;stroke-linecap:round;stroke-linejoin:round;stroke-miterlimit:4;stroke-dasharray:none;stroke-dashoffset:0;stroke-opacity:1;color-rendering:auto;image-rendering:auto;shape-rendering:auto;text-rendering:auto;enable-background:accumulate"
     d="M 8 4.8476562 C 7.6775952 4.8476562 7.4027418 5.0570984 7.2988281 5.3457031 L 6.5039062 5.3457031 C 6.1668874 5.3409331 6.1668875 5.8485163 6.5039062 5.84375 L 7.2988281 5.84375 C 7.3745221 6.0539771 7.4616479 6.2211814 7.671875 6.296875 L 7.671875 11.365234 L 5.9511719 11.365234 C 5.614153 11.360434 5.614153 12.008672 5.9511719 12.003906 L 10.138672 12.003906 C 10.475691 12.008706 10.475691 11.360468 10.138672 11.365234 L 8.3574219 11.365234 L 8.3574219 6.296875 C 8.5676491 6.2211814 8.6254784 6.0539771 8.7011719 5.84375 L 9.4941406 5.84375 C 9.8311596 5.84852 9.8311596 5.3409368 9.4941406 5.3457031 L 8.7011719 5.3457031 C 8.5972583 5.0570984 8.3224047 4.8476563 8 4.8476562 z M 5.5019531 6.4375 C 5.4067948 6.4372147 5.3177709 6.4929246 5.2753906 6.578125 L 4.0273438 9.0742188 C 4.0094698 9.1099688 4.0014051 9.1494885 4.0019531 9.1894531 L 4.0019531 9.3457031 C 4.0016554 9.3518035 4 9.3571033 4 9.3632812 L 4 9.3867188 C 4 9.3939888 4.0034862 9.4010381 4.0039062 9.4082031 L 4.0039062 9.4375 L 4 9.4375 C 4.00502 9.451697 4.0121871 9.4645326 4.0175781 9.4785156 C 4.0276781 9.5164536 4.0434731 9.5520724 4.0644531 9.5839844 C 4.3247585 10.137405 4.880941 10.499534 5.5019531 10.5 C 6.1226145 10.499102 6.6755376 10.137113 6.9355469 9.5839844 C 6.9565269 9.5520744 6.9723219 9.5164495 6.9824219 9.4785156 C 6.9878119 9.4645396 6.994984 9.451689 7 9.4375 L 7 9.3886719 L 7 9.3867188 L 7 9.3632812 L 7 9.3613281 L 6.9980469 9.1835938 C 6.9978294 9.1452738 6.9897832 9.1085 6.9726562 9.0742188 L 5.7246094 6.5761719 C 5.6822721 6.4919786 5.5961915 6.4377698 5.5019531 6.4375 z M 10.501953 6.4375 C 10.406793 6.4372147 10.317771 6.4929251 10.275391 6.578125 L 9.0273438 9.0742188 C 9.0094737 9.1099688 9.0014031 9.1494876 9.0019531 9.1894531 L 9.0019531 9.3457031 C 9.0017181 9.3518035 9 9.3571033 9 9.3632812 L 9 9.3867188 C 9 9.3939987 9.0035062 9.4010381 9.0039062 9.4082031 L 9.0039062 9.4375 L 9 9.4375 C 9.005 9.451697 9.0121881 9.4645316 9.0175781 9.4785156 C 9.0276781 9.5164536 9.0434831 9.5520734 9.0644531 9.5839844 C 9.3247591 10.137405 9.8809411 10.499534 10.501953 10.5 C 11.122614 10.4991 11.675538 10.137113 11.935547 9.5839844 C 11.956527 9.5520744 11.972322 9.5164487 11.982422 9.4785156 C 11.987822 9.4645396 11.99498 9.451688 12 9.4375 L 12 9.3886719 L 12 9.3867188 L 12 9.3632812 L 12 9.3613281 L 11.998047 9.1835938 C 11.997829 9.1452737 11.989826 9.1084999 11.972656 9.0742188 L 10.724609 6.5761719 C 10.682272 6.4919787 10.596191 6.4377699 10.501953 6.4375 z M 5.5 7.2460938 L 6.3769531 9 L 4.6230469 9 L 5.5 7.2460938 z M 10.5 7.2460938 L 11.375 9 L 9.6230469 9 L 10.5 7.2460938 z "
     id="path4498" />
</svg>
